!!!OTL: Nigu sifan
!!!ARE: Asia, China,ÿHeilongjiang
!! III, 51
!!!SCT: C1541
!!!YEM: Copyright 1995, estate of Helmut Schaffrath.
**kern
*ICvox
*Ivox
*M4/4
*k[b-e-]
*B-:
{8r
8ddd
8ddd
8ccc
8bb-
8ccc
8ddd
8ccc
=1
8ddd
8ccc
8ddd
8ccc
8bb-
8gg
4ff
=2
8.cc
16dd
8ff
8bb-
8gg
8ff
8dd
8r}
=3
{8dd
4dd
8dd
8cc
8dd
4ff
=4
8r
4dd
8cc
2b-}
=5
{4.ddd
8ccc
8bb-
8gg
4ff
=6
8fff
8ddd
8ccc
8bb-
8bb-
8gg
4ff}
=7
{4gg
4gg
8r
4ff
8gg
=8
4dd
8dd
8cc
2b-}
=9
{2gg
8gg
4bb-
8dd
=10
8ff
8dd
8dd
8cc
2b-}
=11
{8fff
8fff
8ddd
8ccc
8.fff
16ddd
8ccc
8bb-
=12
8bb-
8gg
4ff
8.bb-
16gg
8bb-
8ccc
=13
8gg
8ff
16ee-
16ff
8gg
2ff}
==
!!!AGN: Xiaodiao
!!!AMT: simple quadruple
!!!AIN: vox
!!!EED: Helmut Schaffrath
!!!EEV: 1.0
*-
